X: 992
T: Allie Bennett's
R: jig
M: 6/8
K: Gmajor
|:GEE EDE|BEF G2 A|Bbb bcb|aGF FEF|
GEE EDE|BEF G2 a|bcb b2 F|aGF E2 F:|
|:efe edb|egf edb|d2 e daF|dgf edb|
e2 f gfe|bgf eda|bgb fbe|daF E3:|

